!!!COM: Bach, Johann Sebastian
!!!OTL: Jesus Christus, unser Heiland
!!!ONM: No. 30
!!!OCL: Erk
!!!YOE: Riemenschneider, Albert
!!!OPR: 371 Harmonized Chorales and 69 Chorale Melodies with Figured Bass
!!!OPT: Bach Chorale Harmonizations
**kern	**kern	**kern	**kern
! bass	! tenor	! alto	! soprano
*M4/4	*M4/4	*M4/4	*M4/4
*e:	*e:	*e:	*e:
=1	=1	=1	=1
[4E	4G	4B	4e
8E]	4F#	4B	4b
8D	.	.	.
2C	4G	8e	4b
.	.	8d#	.
.	8F#	4e	4a
.	8E	.	.
=2	=2	=2	=2
8BB	4F#	4d#	4b
8A	.	.	.
8G	8B	8e	8e
8F#	8A	8d	8f#
8E	4B	4e	4g
8D	.	.	.
8C	8e	4e	4g
8BB	8d#	.	.
=3	=3	=3	=3
4AA#	4c#	[4e	4g
4BB	8F#	8e]	4f#
.	16B	8d#	.
.	16An	.	.
2EE;	2G;	2B;	2e;
=4	=4	=4	=4
8E	4B	4e	4g
8D	.	.	.
4Cn	4cn	4e	4g
4BB	4G	4dn	4g
4C	4G	4c	4e
=5	=5	=5	=5
8C	8G	4d	4g
8BB	16A	.	.
.	16B	.	.
4AA	4c	8e	4a
.	.	8f#	.
4GG	8d	[4g	4b
.	16e	.	.
.	16d	.	.
4AA	16c	8g]	4a
.	16B	.	.
.	8c	[8f#	.
=6	=6	=6	=6
2BB	4B	8f#]	4g
.	.	[8e	.
.	8.B	8e]	4f#
.	.	8d#	.
.	16A	.	.
2E;	2G;	2B;	2e;
=7	=7	=7	=7
4E	8B	4e	4g
.	8c	.	.
4BB	4d	8g	4g
.	.	8f#	.
8C	4c	4e	4g
8D	.	.	.
8E	4G	4c	4e
8D	.	.	.
=8	=8	=8	=8
8C	4G	8e	4g
8BB	.	8d	.
4AA	4c	8e	4a
.	.	8f#	.
4GG	[4d	[4g	4b
4D	8.d]	8g]	4a
.	.	8f#	.
.	16c	.	.
=9	=9	=9	=9
2GG;	2B;	2d;	2g;
4r	4r	4r	4r
4BB	4d	8g	4dd
.	.	8fn	.
=10	=10	=10	=10
4C	8c	4e	4ee
.	8B	.	.
4D	4A	4f#	8dd
.	.	.	8cc
[8E	8G	8g	8b
4E]	8c	8d#	8a
.	8B	8e	8g
8F#	8A	[8dn	8a
=11	=11	=11	=11
8G	8G	8d]	4b
8BB	8d	[8g	.
8C#	8e	8g]	4a
8D#	8B	[8f#	.
8E	4B	8f#]	4g
8GG	.	[8e	.
8AA	8cn	8e]	4f#
8BB	16B	8d#	.
.	16A	.	.
=12	=12	=12	=12
2.EE;	2.G#;	2.B;	2.e;
==	==	==	==
*-	*-	*-	*-
!!!CDT: 1685/3//-1750/7/28
!!!OCY: Deutschland
!!!AGN: chorale
!!!AST: Baroque
!!!AIN: vox
!!!YOY: 1941
!!!PPP: New York; London
!!!PPR: G. Schirmer
!!!ENC: David Huron
!!!EED: David Huron
!!!YEN: United States of America
!!!YER: 1992
!!!YEC: Copyright 1992 David Huron
!!!YEM: Rights to all derivative electronic formats reserved.
!!!YER: March 20, 1996
!!!AMT: simple quadruple
!!!EEV: 1.1
